src/ui/webui/resources/cr_components/chromeos/network/ethernet.svg

<svg width="20" height="20" viewBox="0 0 20 20" xmlns="http://www.w3.org/2000/svg">
<g id="ethernet">
<path id="Shape 1" fill-rule="evenodd" clip-rule="evenodd" d="M14.0909 5L12.9373 6.175L16.6845 10L12.9373 13.825L14.0909 15L19 10L14.0909 5ZM7.06273 6.175L5.90909 5L1 10L5.90909 15L7.06273 13.825L3.31545 10L7.06273 6.175ZM7.05457 11C7.59682 11 8.03639 10.5523 8.03639 10C8.03639 9.44772 7.59682 9 7.05457 9C6.51233 9 6.07275 9.44772 6.07275 10C6.07275 10.5523 6.51233 11 7.05457 11ZM10 11C10.5422 11 10.9818 10.5523 10.9818 10C10.9818 9.44772 10.5422 9 10 9C9.45776 9 9.01819 9.44772 9.01819 10C9.01819 10.5523 9.45776 11 10 11ZM12.9454 11C13.4877 11 13.9273 10.5523 13.9273 10C13.9273 9.44772 13.4877 9 12.9454 9C12.4032 9 11.9636 9.44772 11.9636 10C11.9636 10.5523 12.4032 11 12.9454 11Z" />
</g>
</svg>

<svg width="20" height="20" viewBox="0 0 20 20" xmlns="http://www.w3.org/2000/svg"><path fill-rule="evenodd" clip-rule="evenodd" d="m14.09 5-1.153 1.175L16.685 10l-3.748 3.825L14.091 15 19 10l-4.91-5ZM7.064 6.175 5.909 5 1 10l4.91 5 1.153-1.175L3.315 10l3.748-3.825ZM7.055 11a.991.991 0 0 0 .981-1c0-.552-.44-1-.981-1a.991.991 0 0 0-.982 1c0 .552.44 1 .982 1ZM10 11a.991.991 0 0 0 .982-1c0-.552-.44-1-.982-1a.991.991 0 0 0-.982 1c0 .552.44 1 .982 1Zm2.945 0a.991.991 0 0 0 .982-1c0-.552-.44-1-.982-1a.991.991 0 0 0-.981 1c0 .552.44 1 .981 1Z"/></svg>
